static/logos/dribbble-glyph-color.svg

<svg width="50" height="50" viewBox="0 0 50 50" fill="none" xmlns="http://www.w3.org/2000/svg">
<g clip-path="url(#clip0_1_2949)">
<path d="M25 1.66016C37.8906 1.66016 48.3203 12.0898 48.3203 24.9609C48.3203 37.832 37.8906 48.2812 25 48.2812C12.1094 48.2812 1.67969 37.8516 1.67969 24.9805C1.67969 12.1094 12.1094 1.66016 25 1.66016Z" fill="#E74D89"/>
<path d="M25 49.9414C11.2109 49.9414 0 38.75 0 24.9805C0 11.1914 11.2109 0 25 0C38.7891 0 50 11.1914 50 24.9609C50 38.7305 38.7891 49.9414 25 49.9414ZM46.0742 28.3789C45.3516 28.1445 39.4727 26.4063 32.7734 27.4609C35.5664 35.1172 36.6992 41.3672 36.9141 42.6562C41.7188 39.4336 45.1367 34.3164 46.0742 28.3789ZM33.3398 44.6289C33.0273 42.7539 31.7773 36.2305 28.7891 28.457C28.75 28.4766 28.6914 28.4961 28.6523 28.4961C16.6016 32.6953 12.2852 41.0352 11.8945 41.8164C15.5078 44.6289 20.0586 46.3086 25 46.3086C27.9492 46.3281 30.7812 45.7227 33.3398 44.6289ZM9.14062 39.2578C9.62891 38.4375 15.4883 28.75 26.5039 25.1758C26.7773 25.0781 27.0703 25 27.3438 24.9219C26.8164 23.7109 26.2305 22.5 25.6055 21.3086C14.9414 24.4922 4.58984 24.3555 3.65234 24.3359C3.65234 24.5508 3.63281 24.7656 3.63281 24.9805C3.65234 30.4688 5.72266 35.4688 9.14062 39.2578ZM4.10156 20.625C5.05859 20.6445 13.8477 20.6836 23.8477 18.0273C20.3125 11.7383 16.4844 6.46484 15.9375 5.70313C9.94141 8.51563 5.48828 14.0234 4.10156 20.625ZM20 4.25781C20.5859 5.03906 24.4727 10.3125 27.9687 16.7383C35.5664 13.8867 38.7695 9.58984 39.1602 9.04297C35.3906 5.70312 30.4297 3.67187 25 3.67187C23.2812 3.67187 21.6016 3.88672 20 4.25781ZM41.5234 11.5039C41.0742 12.1094 37.5 16.6992 29.6094 19.9219C30.0977 20.9375 30.5859 21.9727 31.0352 23.0078C31.1914 23.3789 31.3477 23.75 31.5039 24.1016C38.6133 23.2031 45.6641 24.6484 46.3672 24.7852C46.3086 19.7656 44.5117 15.1367 41.5234 11.5039Z" fill="#B2215A"/>
</g>
<defs>
<clipPath id="clip0_1_2949">
<rect width="50" height="50" fill="white"/>
</clipPath>
</defs>
</svg>

<svg xmlns="http://www.w3.org/2000/svg" width="64" height="64" fill="none" viewBox="0 0 50 50"><g clip-path="url(#a)"><path fill="#E74D89" d="M25 1.66c12.89 0 23.32 10.43 23.32 23.3 0 12.872-10.43 23.321-23.32 23.321s-23.32-10.43-23.32-23.3C1.68 12.108 12.11 1.66 25 1.66Z"/><path fill="#B2215A" d="M25 49.941c-13.79 0-25-11.191-25-24.96C0 11.19 11.21 0 25 0s25 11.191 25 24.96c0 13.77-11.21 24.981-25 24.981ZM46.074 28.38c-.722-.235-6.601-1.973-13.3-.918 2.792 7.656 3.925 13.906 4.14 15.195 4.805-3.222 8.223-8.34 9.16-14.277ZM33.34 44.629c-.313-1.875-1.563-8.398-4.55-16.172a.361.361 0 0 1-.138.04c-12.05 4.198-16.367 12.538-16.758 13.32A21.27 21.27 0 0 0 25 46.308a20.86 20.86 0 0 0 8.34-1.68Zm-24.2-5.371c.489-.82 6.348-10.508 17.364-14.082.273-.098.566-.176.84-.254a55.582 55.582 0 0 0-1.739-3.613C14.941 24.492 4.59 24.355 3.652 24.336c0 .215-.02.43-.02.645a21.341 21.341 0 0 0 5.509 14.277ZM4.103 20.625c.957.02 9.746.059 19.746-2.598-3.535-6.289-7.364-11.562-7.91-12.324-5.997 2.813-10.45 8.32-11.836 14.922ZM20 4.258c.586.781 4.473 6.054 7.969 12.48 7.597-2.851 10.8-7.148 11.191-7.695A21.288 21.288 0 0 0 25 3.672c-1.719 0-3.398.215-5 .586Zm21.523 7.246c-.449.605-4.023 5.195-11.914 8.418a88.39 88.39 0 0 1 1.426 3.086c.156.37.313.742.469 1.094 7.11-.899 14.16.546 14.863.683a21.241 21.241 0 0 0-4.844-13.281Z"/></g><defs><clipPath id="a"><path fill="#fff" d="M0 0h50v50H0z"/></clipPath></defs></svg>
